svgs/sharp-regular/ticket.svg

<svg xmlns="http://www.w3.org/2000/svg" viewBox="0 0 576 512"><!--! Font Awesome Pro 6.6.0 by @fontawesome - https://fontawesome.com License - https://fontawesome.com/license (Commercial License) Copyright 2024 Fonticons, Inc. --><path d="M0 64l0 48 0 48 0 48c26.5 0 48 21.5 48 48s-21.5 48-48 48l0 48 0 48 0 48 48 0 480 0 48 0 0-48 0-48 0-48c-26.5 0-48-21.5-48-48s21.5-48 48-48l0-48 0-48 0-48-48 0L48 64 0 64zM96 256c0-35.5-19.3-66.6-48-83.2L48 112l480 0 0 60.8c-28.7 16.6-48 47.6-48 83.2s19.3 66.6 48 83.2l0 60.8L48 400l0-60.8c28.7-16.6 48-47.6 48-83.2zm80-48l224 0 0 96-224 0 0-96zm-48-48l0 48 0 96 0 48 48 0 224 0 48 0 0-48 0-96 0-48-48 0-224 0-48 0z"/></svg>

<svg xmlns="http://www.w3.org/2000/svg" viewBox="0 0 576 512"><!--! Font Awesome Pro 6.4.0 by @fontawesome - https://fontawesome.com License - https://fontawesome.com/license (Commercial License) Copyright 2023 Fonticons, Inc. --><path d="M0 64v48 48 48c26.5 0 48 21.5 48 48s-21.5 48-48 48v48 48 48H48 528h48V400 352 304c-26.5 0-48-21.5-48-48s21.5-48 48-48V160 112 64H528 48 0zM96 256c0-35.5-19.3-66.6-48-83.2V112H528v60.8c-28.7 16.6-48 47.6-48 83.2s19.3 66.6 48 83.2V400H48V339.2c28.7-16.6 48-47.6 48-83.2zm80-48H400v96H176V208zm-48-48v48 96 48h48H400h48V304 208 160H400 176 128z"/></svg>
